icons/24x24_text_bold_outline.svg

<svg xmlns="http://www.w3.org/2000/svg" width="24" height="24" viewBox="0 0 24 24">
  <path fill-rule="evenodd" d="M12.4404145,19 L7,19 L7,5 L11.9740933,5 C15.1865285,5 16.7409326,6.5859375 16.7409326,8.828125 C16.7409326,10.3251953 16.0479275,11.4052734 14.4093264,11.7607422 L14.4093264,11.8632812 C15.9896373,12.0820312 17,13.3945312 17,15.1992188 C17,17.46875 15.3937824,19 12.4404145,19 Z M10.0051813,7.625 L10.0051813,10.8242188 L11.7150259,10.8242188 C13.1658031,10.8242188 13.761658,10.3320312 13.761658,9.265625 C13.761658,8.41796875 13.373057,7.625 11.8963731,7.625 L10.0051813,7.625 Z M14.0466321,14.7617188 C14.0466321,13.8046875 13.5544041,13.0117188 12.3108808,13.0117188 L10.0051813,13.0117188 L10.0051813,16.375 L12.2072539,16.375 C13.5025907,16.375 14.0466321,15.7734375 14.0466321,14.7617188 Z"/>
</svg>

<svg width="24" height="24" fill="none" xmlns="http://www.w3.org/2000/svg"><path fill-rule="evenodd" clip-rule="evenodd" d="M12.44 19H7V5h4.974c3.213 0 4.767 1.586 4.767 3.828 0 1.497-.693 2.577-2.332 2.933v.102C15.99 12.082 17 13.395 17 15.2c0 2.27-1.606 3.8-4.56 3.8ZM10.005 7.625v3.2h1.71c1.45 0 2.047-.493 2.047-1.56 0-.847-.389-1.64-1.866-1.64h-1.89Zm4.042 7.137c0-.957-.493-1.75-1.736-1.75h-2.306v3.363h2.202c1.296 0 1.84-.602 1.84-1.613Z" fill="#000"/></svg>
